X: 32
T: Tuonne taakse metsmaan
O: Trad Finland
Z: John Chambers <jc@trillian.mit.edu>
M: 2/4
L: 1/16
K: Dm
|: "Dm"F2FE D2D^C | D2F2 "(A7)"A4 | "Dm"d2d2 "Gm"B2BA | "(C7)"G4 "A7(F)"A4 :: "Dm"A2d2 "C"c3B | "F"A3G "A7"A3G | "Dm"F2F2 "A7"E2E2 | "Dm"D4 D4 :|
%%sep 1 1 10cm
